X:245
T:Fair Fa' the Minstrel
R:Reel
B:The Athole Collection
M:C|
L:1/8
K:B_
e|dB B/B/B FBDe|dB B/B/B dBfe|dB B/B/B FBDB|GEFD CDE:|
G|DB,FB, GB,FB,|DB,FB, GB,FD|GEFD CDEG|DB,FB, GB,FB,|
DB,FB, DEFe|dBcA ~BGFD|GEFD CDE||
|:e|eB B/B/B FBDe|dB B/B/B fBfe|dB B/B/B FBDB|GEFD CDE:|
e|dBfB gBfe|dBfB defb|dBfB gBfd|gefd cdeg|dBfB gBfe|dBfB defb|
dbfd bdfb|gefd cdeg||

